!!! OTL: Literature7
!!! Chapter: 5
!!! Section: I
!!! Page: 346
!!! Mode: 
!!! Encoder: DJB
**kern
*staff1
*I"Piano
=1-
*clefF4
*k[b-e-a-]
*E-:
*M4/4
4G\
4A-\
4B-\
4B-\
=2
4E-\
4F\
2G\
=3
4c\
4d\
4e-\
4G\
=4
2F\
2E-\
=5
4B-\
4A-\
2G\
=6
4c\
8c\L
8d\J
2B-\
=7
4c\
4d\
4e-\
4G\
=8
2F\
2E-\
==
*-
